X:1
T:440 - A PÃ¡tria Feliz
T:Letra: SalomÃ£o Luiz Ginsburg (1867-1927)
T:MÃºsica: James William Elliott (1833-1915)
M:4/4
L:1/8
Q:1/4=115
K:Ebmaj
V:1
E2 | "Eb"G2 B2 c2 (B=A) | B4 G2 "Bb7"F2 | "Eb"E2 (FG) "Fm7"A2 c2 | "Bb"F4 z2 F2 | "Eb"G2 G2 "F7"=A2 (GF) | "Bb"B4 "Gm7"D2 "(Eb)"E2 | "Bb"F2 B2 "F7"c3d | "Bb"B4 z2 B2 | "Bb7"A2 G2 F2 A2 | ("Eb"G2 F2) E2 "C7"B2 | "Fm"A2 G2 F2 "C7"=E2 | "Fm"F4 z2 (FG) | "Abm"A2 E2 "Bb"D2 E2 | ("Bb7"F3G) F2 "Eb"G2 | "Ab"A2 (Bc) "Eb/Bb"G2 "Bb7"F2 | "Eb"E4 z2 |]
w:1.~A PÃ¡-tria pa-ra_ Cris-to! Es-taÃ© mi_nhao-ra-Ã§Ã£o! Ã“ PÃ¡-triaa-ben-Ã§o_a-da, Ã‰ teu meu co-ra-Ã§Ã£o! Que-ri-do lar pa-ter_no, Ã“ PÃ¡-tria,Ã³ meu a-mor! Ã“_ Deus deex-cel-sa gra_Ã§a, Dis-pen-sa_lhe fa-vor!
w:2.~Ã“ po-vo bra-si_lei-ro, Oh, con-tem_plai Je-sus, O qual por vÃ³s foi_ mor-to Naen-san-gÃ¼en-ta-da cruz! A pe-na do pe-ca_do Com gran-dea-mor so-freu; Seu_ san-gue tÃ£o pre-cio_so A-li por_ vÃ³s ver-teu!
w:3.~A PÃ¡-tria pa-ra_ Cris-to! Oh, se-jaas_sim, meu Deus, Que to-do bra-si_lei-ro Ou-Ã§aos a-pe-los teus! E quan-do nÃ³s ou-vir_mos A tu-a voz dea-lÃ©m, Que_ to-do bra-si-lei_ro A-ten-da e go-zeo bem!
W:
W:
W:1. A PÃ¡tria para Cristo!
W:Esta Ã© minha oraÃ§Ã£o!
W:Ã“ PÃ¡tria abenÃ§oada,
W:Ã‰ teu meu coraÃ§Ã£o!
W:Querido lar paterno,
W:Ã“ PÃ¡tria, Ã³ meu amor!
W:Ã“ Deus de excelsa graÃ§a,
W:Dispensa-lhe favor!
W:
W:2. Ã“ povo brasileiro,
W:Oh, contemplai Jesus,
W:O qual por vÃ³s foi morto
W:Na ensangÃ¼entada cruz!
W:A pena do pecado
W:Com grande amor sofreu;
W:Seu sangue tÃ£o precioso
W:Ali por vÃ³s verteu!
W:
W:
W:
W:3. A PÃ¡tria para Cristo!
W:Oh, seja assim, meu Deus,
W:Que todo brasileiro
W:OuÃ§a os apelos teus!
W:E quando nÃ³s ouvirmos
W:A tua voz de alÃ©m,
W:Que todo brasileiro
W:Atenda e goze o bem!
W:
W:

